assets/crypto-server-small.svg

<svg height="64" viewBox="0 0 361 64" width="361" xmlns="http://www.w3.org/2000/svg" xmlns:xlink="http://www.w3.org/1999/xlink"><linearGradient id="a" x1="50%" x2="50%" y1="23.090894%" y2="94.501%"><stop offset="0" stop-color="#22acff"/><stop offset="1" stop-color="#861efe"/></linearGradient><g fill="url(#a)"><g transform="translate(.75 .8125)"><path d="m6.74939122 21.1309071v3.1747013c0 3.373031 2.6798284 6.0516703 6.05452398 6.0516703h5.5582243v-3.0755364h-5.5582243c-1.6874667 0-2.97756066-1.3887832-2.97756066-2.9761339v-3.2738661c1.48866146-.5952268 2.48126096-2.0831748 2.48126096-3.6705255 0-2.1825774-1.7866316-4.0674226-4.06932504-4.0674226-2.18376645 0-4.06956281 1.7856803-4.06956281 4.0674226 0 1.7856803.99259949 3.2738661 2.58066357 3.7696903"/><path d="m12.8039152 49.2064436h5.5582243v-3.0752987h-5.5582243c-3.37469558 0-6.05452398 2.6784016-6.05452398 6.0514325v2.4803097c-1.48889925.594989-2.58066357 2.0831748-2.58066357 3.7696903 0 2.1825775 1.78663153 4.0674226 4.06956281 4.0674226 2.18352864 0 4.06932504-1.7856803 4.06932504-4.0674226 0-1.6865155-.9925995-3.0752987-2.48126096-3.6705254v-2.4803097c-.09940263-1.6862777 1.29009396-3.0752987 2.97756066-3.0752987"/><path d="m4.16872765 42.3612168c1.6872289 0 3.17612814-.9921239 3.77159272-2.4803097h10.42181913v-3.0752987h-10.52098396c-.59546457-1.4881858-2.08436382-2.4803097-3.77159272-2.4803097-2.18376646.0002378-4.06956282 1.7861559-4.06956282 4.0678982.10061059 2.2266249 1.93984973 3.9774168 4.16872765 3.9683289"/><path d="m82.7788505 24.4047732v-3.1747013c1.4886615-.594989 2.5806636-2.0831748 2.5806636-3.7696903 0-2.1825774-1.7866315-4.0674225-4.0695628-4.0674225-2.1835287 0-4.069325 1.7856803-4.069325 4.0674225 0 1.6865155.9923617 3.0752987 2.4812609 3.6705255v3.2738661c0 1.6865155-1.3894966 2.9761339-2.9775607 2.9761339h-5.5582242v3.0755365h5.5582242c3.3744578 0 6.054524-2.7778042 6.054524-6.0516704"/><path d="m79.8010521 52.2817423v2.4803097c-1.4886615.5952267-2.481261 2.0831748-2.481261 3.6705254 0 2.1825775 1.7866315 4.0674226 4.0695628 4.0674226 2.1835287 0 4.069325-1.7856803 4.069325-4.0674226 0-1.6865155-1.0917643-3.1747013-2.5804257-3.7696903v-2.4803097c0-3.3730309-2.6800662-6.0514325-6.0547618-6.0514325h-5.5582243v3.0752987h5.5582243c1.588064 0 2.9775607 1.3887832 2.9775607 3.0752987"/><path d="m85.3595141 34.3254669c-1.6872289 0-3.1761281.9919557-3.7715927 2.4803793h-10.3226543v3.0750609h10.4218191c.5954646 1.4881858 2.0843638 2.4803097 3.7715927 2.4803097 2.1837665 0 4.0695629-1.7859181 4.0695629-4.0676604-.1008542-2.2264765-1.9399865-3.9770617-4.1687277-3.9680895"/><path d="m25.8063979 57.0437942h37.9156838c2.2826934 0 4.0690872-1.7859181 4.0690872-4.0674225v-26.2898562c0-2.2817423-1.7863938-4.0674226-4.0693251-4.0674226h-3.6724278v-7.3410509c0-8.43257742-6.8487939-15.278042-15.285414-15.278042s-15.2851762 6.84522677-15.2851762 15.2778042v7.3412887h-3.6724279c-2.2829313 0-4.0695628 1.7856803-4.0695628 4.0674226v26.2898562c0 2.2815044 1.7866315 4.0674225 4.0695628 4.0674225zm23.0271669-9.3255365c.1985675.5952268-.2977323 1.2898562-.9925995 1.2898562h-6.054524c-.6946294 0-1.0917643-.5954646-.9925995-1.2898562l1.4886614-5.8531028c-.9923617-.7937943-1.5878262-1.9842478-1.5878262-3.2738662 0-2.2817422 1.8857963-4.1665874 4.1687276-4.1665874s4.1687277 1.8848452 4.1687277 4.1665874c0 1.3887832-.5957024 2.5792368-1.5880641 3.2738662zm-13.4987824-32.4404535c0-5.2578761 4.2681302-9.42470132 9.4292196-9.42470132 5.2607298 0 9.4292196 4.26599002 9.4292196 9.42470132v7.3412887h-18.8584392v-7.3410509z"/></g><g transform="translate(105.4375 20.1875)"><path d="m11.635 24.0175c-3.22833333 0-5.97458333-1.0941667-8.23875-3.2825s-3.39625-5.0916667-3.39625-8.71c0-3.59666667 1.14833333-6.5 3.445-8.71s5.01583333-3.315 8.1575-3.315c2.7733333 0 5.05375.70416667 6.84125 2.1125s2.9629167 3.19583333 3.52625 5.3625l-3.6725 1.235c-.3683333-1.495-1.1158333-2.70833333-2.2425-3.64s-2.6108333-1.3975-4.4525-1.3975c-2.05833333 0-3.84041667.73125-5.34625 2.19375s-2.25875 3.51541667-2.25875 6.15875c0 2.5783333.7475 4.59875 2.2425 6.06125s3.29333333 2.19375 5.395 2.19375c1.7983333 0 3.2825-.4875 4.4525-1.4625s1.9716667-2.1775 2.405-3.6075l3.575 1.17c-.5633333 2.145-1.7495833 3.9541667-3.55875 5.4275s-4.1004167 2.21-6.87375 2.21z"/><path d="m37.6675 23.53-4.8425-9.1h-2.86v9.1h-3.9325v-23.0425h8.84c2.1666667 0 3.9108333.66625 5.2325 1.99875s1.9825 2.99541667 1.9825 4.98875c0 1.64666667-.4658333 3.055-1.3975 4.225s-2.1991667 1.95-3.8025 2.34l5.2 9.49zm-7.7025-12.545h4.1925c1.1916667 0 2.1504167-.3195833 2.87625-.95875.7258333-.63916667 1.08875-1.48958333 1.08875-2.55125 0-1.08333333-.3629167-1.94458333-1.08875-2.58375s-1.6845833-.95875-2.87625-.95875h-4.1925z"/><path d="m51.545 13.78-8.06-13.2925h4.615l5.525 9.6525 5.5575-9.6525h4.3875l-8.125 13.2925v9.75h-3.9z"/><path d="m70.5575 11.0825h4.0625c1.235 0 2.2045833-.3195833 2.90875-.95875.7041667-.63916667 1.05625-1.50041667 1.05625-2.58375 0-1.105-.3520833-1.9825-1.05625-2.6325s-1.67375-.975-2.90875-.975h-4.0625zm4.6475 3.445h-4.6475v9.0025h-3.9v-23.0425h8.5475c2.1883333 0 3.9595833.66083333 5.31375 1.9825s2.03125 3.00083333 2.03125 5.0375c0 2.05833333-.6770833 3.7429167-2.03125 5.05375s-3.1254167 1.96625-5.31375 1.96625z"/><path d="m102.765 4.16h-7.5075v19.37h-3.9v-19.37h-7.475v-3.6725h18.8825z"/><path d="m110.11 5.8825c-1.516667 1.45166667-2.275 3.48833333-2.275 6.11 0 2.6216667.758333 4.66375 2.275 6.12625s3.325833 2.19375 5.4275 2.19375 3.91625-.73125 5.44375-2.19375 2.29125-3.5045833 2.29125-6.12625c0-2.62166667-.76375-4.66375-2.29125-6.12625s-3.342083-2.19375-5.44375-2.19375-3.910833.73666667-5.4275 2.21zm-4.615 12.545c-1.105-1.8633333-1.6575-4.0083333-1.6575-6.435 0-2.42666667.557917-4.56625 1.67375-6.41875s2.55125-3.24458333 4.30625-4.17625c1.755-.93166667 3.661667-1.3975 5.72-1.3975s3.965.46583333 5.72 1.3975 3.195833 2.32375 4.3225 4.17625 1.69 3.99208333 1.69 6.41875c0 2.4266667-.563333 4.5716667-1.69 6.435s-2.5675 3.2608333-4.3225 4.1925-3.661667 1.3975-5.72 1.3975-3.965-.4658333-5.72-1.3975-3.195833-2.3291667-4.3225-4.1925z"/><path d="m154.6025 5.8825-3.51 1.105c-.151667-.88833333-.595833-1.70083333-1.3325-2.4375s-1.798333-1.105-3.185-1.105c-1.148333 0-2.09625.325-2.84375.975s-1.12125 1.43-1.12125 2.34c0 1.58166667.899167 2.5675 2.6975 2.9575l3.315.6825c1.993333.39 3.531667 1.1808333 4.615 2.3725s1.625 2.6108333 1.625 4.2575c0 1.9066667-.73125 3.5479167-2.19375 4.92375s-3.450417 2.06375-5.96375 2.06375c-2.708333 0-4.820833-.7095833-6.3375-2.12875s-2.3725-3.07125-2.5675-4.95625l3.64-1.04c.13 1.3.65 2.3941667 1.56 3.2825s2.145 1.3325 3.705 1.3325c1.343333 0 2.377917-.2979167 3.10375-.89375s1.08875-1.3595833 1.08875-2.29125c0-.7583333-.270833-1.41375-.8125-1.96625s-1.3-.9370833-2.275-1.15375l-3.25-.6825c-1.798333-.3683333-3.222917-1.1158333-4.27375-2.2425s-1.57625-2.535-1.57625-4.225c0-1.92833333.769167-3.58583333 2.3075-4.9725s3.38-2.08 5.525-2.08c2.448333 0 4.3225.59041667 5.6225 1.77125s2.1125 2.55125 2.4375 4.11125z"/><path d="m173.16 23.53h-14.235v-23.0425h14.235v3.64h-10.335v6.11h9.36v3.5425h-9.36v6.11h10.335z"/><path d="m189.475 23.53-4.8425-9.1h-2.86v9.1h-3.9325v-23.0425h8.84c2.166667 0 3.910833.66625 5.2325 1.99875s1.9825 2.99541667 1.9825 4.98875c0 1.64666667-.465833 3.055-1.3975 4.225s-2.199167 1.95-3.8025 2.34l5.2 9.49zm-7.7025-12.545h4.1925c1.191667 0 2.150417-.3195833 2.87625-.95875.725833-.63916667 1.08875-1.48958333 1.08875-2.55125 0-1.08333333-.362917-1.94458333-1.08875-2.58375s-1.684583-.95875-2.87625-.95875h-4.1925z"/><path d="m206.115 18.4275 6.4675-17.94h4.1275l-8.71 23.0425h-3.965l-8.58-23.0425h4.225z"/><path d="m234.0325 23.53h-14.235v-23.0425h14.235v3.64h-10.335v6.11h9.36v3.5425h-9.36v6.11h10.335z"/><path d="m250.3475 23.53-4.8425-9.1h-2.86v9.1h-3.9325v-23.0425h8.84c2.166667 0 3.910833.66625 5.2325 1.99875s1.9825 2.99541667 1.9825 4.98875c0 1.64666667-.465833 3.055-1.3975 4.225s-2.199167 1.95-3.8025 2.34l5.2 9.49zm-7.7025-12.545h4.1925c1.191667 0 2.150417-.3195833 2.87625-.95875.725833-.63916667 1.08875-1.48958333 1.08875-2.55125 0-1.08333333-.362917-1.94458333-1.08875-2.58375s-1.684583-.95875-2.87625-.95875h-4.1925z"/></g></g></svg>

<?xml version="1.0" encoding="UTF-8"?>
<svg width="361px" height="64px" viewBox="0 0 361 64" version="1.1" xmlns="http://www.w3.org/2000/svg" xmlns:xlink="http://www.w3.org/1999/xlink">
    <title>crypto-server-small</title>
    <defs>
        <linearGradient x1="50%" y1="23.0908939%" x2="50%" y2="94.501%" id="linearGradient-1">
            <stop stop-color="#22ACFF" offset="0%"></stop>
            <stop stop-color="#861EFE" offset="100%"></stop>
        </linearGradient>
        <linearGradient x1="50%" y1="23.0908939%" x2="50%" y2="94.501%" id="linearGradient-2">
            <stop stop-color="#22ACFF" offset="0%"></stop>
            <stop stop-color="#861EFE" offset="100%"></stop>
        </linearGradient>
        <linearGradient x1="50%" y1="23.0908939%" x2="50%" y2="94.501%" id="linearGradient-3">
            <stop stop-color="#22ACFF" offset="0%"></stop>
            <stop stop-color="#861EFE" offset="100%"></stop>
        </linearGradient>
        <linearGradient x1="50%" y1="23.0908939%" x2="50%" y2="94.501%" id="linearGradient-4">
            <stop stop-color="#22ACFF" offset="0%"></stop>
            <stop stop-color="#861EFE" offset="100%"></stop>
        </linearGradient>
        <linearGradient x1="50%" y1="23.0908939%" x2="50%" y2="94.501%" id="linearGradient-5">
            <stop stop-color="#22ACFF" offset="0%"></stop>
            <stop stop-color="#861EFE" offset="100%"></stop>
        </linearGradient>
        <linearGradient x1="50%" y1="23.0908939%" x2="50%" y2="94.501%" id="linearGradient-6">
            <stop stop-color="#22ACFF" offset="0%"></stop>
            <stop stop-color="#861EFE" offset="100%"></stop>
        </linearGradient>
        <linearGradient x1="50%" y1="23.0908939%" x2="50%" y2="94.501%" id="linearGradient-7">
            <stop stop-color="#22ACFF" offset="0%"></stop>
            <stop stop-color="#861EFE" offset="100%"></stop>
        </linearGradient>
        <linearGradient x1="50%" y1="23.0908939%" x2="50%" y2="94.501%" id="linearGradient-8">
            <stop stop-color="#22ACFF" offset="0%"></stop>
            <stop stop-color="#861EFE" offset="100%"></stop>
        </linearGradient>
        <linearGradient x1="50%" y1="23.0908939%" x2="50%" y2="94.501%" id="linearGradient-9">
            <stop stop-color="#22ACFF" offset="0%"></stop>
            <stop stop-color="#861EFE" offset="100%"></stop>
        </linearGradient>
        <linearGradient x1="50%" y1="23.0908939%" x2="50%" y2="94.501%" id="linearGradient-10">
            <stop stop-color="#22ACFF" offset="0%"></stop>
            <stop stop-color="#861EFE" offset="100%"></stop>
        </linearGradient>
        <linearGradient x1="50%" y1="23.0908939%" x2="50%" y2="94.501%" id="linearGradient-11">
            <stop stop-color="#22ACFF" offset="0%"></stop>
            <stop stop-color="#861EFE" offset="100%"></stop>
        </linearGradient>
        <linearGradient x1="50%" y1="23.0908939%" x2="50%" y2="94.501%" id="linearGradient-12">
            <stop stop-color="#22ACFF" offset="0%"></stop>
            <stop stop-color="#861EFE" offset="100%"></stop>
        </linearGradient>
        <linearGradient x1="50%" y1="23.0908939%" x2="50%" y2="94.501%" id="linearGradient-13">
            <stop stop-color="#22ACFF" offset="0%"></stop>
            <stop stop-color="#861EFE" offset="100%"></stop>
        </linearGradient>
        <linearGradient x1="50%" y1="23.0908939%" x2="50%" y2="94.501%" id="linearGradient-14">
            <stop stop-color="#22ACFF" offset="0%"></stop>
            <stop stop-color="#861EFE" offset="100%"></stop>
        </linearGradient>
    </defs>
    <g id="Crypto-Logos" stroke="none" stroke-width="1" fill="none" fill-rule="evenodd">
        <g id="crypto-server-small" transform="translate(0.750000, 0.812500)" fill-rule="nonzero">
            <g id="CRYPTO-SERVER-LOCK">
                <path d="M6.74939122,21.1309071 L6.74939122,24.3056084 C6.74939122,27.6786394 9.42921962,30.3572787 12.8039152,30.3572787 L18.3621395,30.3572787 L18.3621395,27.2817423 L12.8039152,27.2817423 C11.1164485,27.2817423 9.82635454,25.8929591 9.82635454,24.3056084 L9.82635454,21.0317423 C11.315016,20.4365155 12.3076155,18.9485675 12.3076155,17.3612168 C12.3076155,15.1786394 10.5209839,13.2937942 8.23829046,13.2937942 C6.05452401,13.2937942 4.16872765,15.0794745 4.16872765,17.3612168 C4.16872765,19.1468971 5.16132714,20.6350829 6.74939122,21.1309071" id="Path" fill="url(#linearGradient-1)"></path>
                <path d="M12.8039152,49.2064436 L18.3621395,49.2064436 L18.3621395,46.1311449 L12.8039152,46.1311449 C9.42921962,46.1311449 6.74939122,48.8095465 6.74939122,52.1825774 L6.74939122,54.6628871 C5.26049197,55.2578761 4.16872765,56.7460619 4.16872765,58.4325774 C4.16872765,60.6151549 5.95535918,62.5 8.23829046,62.5 C10.4218191,62.5 12.3076155,60.7143197 12.3076155,58.4325774 C12.3076155,56.7460619 11.315016,55.3572787 9.82635454,54.762052 L9.82635454,52.2817423 C9.72695191,50.5954646 11.1164485,49.2064436 12.8039152,49.2064436" id="Path" fill="url(#linearGradient-2)"></path>
                <path d="M4.16872765,42.3612168 C5.85595655,42.3612168 7.34485579,41.3690929 7.94032037,39.8809071 L18.3621395,39.8809071 L18.3621395,36.8056084 L7.84115554,36.8056084 C7.24569097,35.3174226 5.75679172,34.3252987 4.06956282,34.3252987 C1.88579636,34.3255365 1.68970858e-15,36.1114546 1.68970858e-15,38.3931969 C0.100610589,40.6198218 1.93984973,42.3706137 4.16872765,42.3615258" id="Path" fill="url(#linearGradient-3)"></path>
                <path d="M82.7788505,24.4047732 L82.7788505,21.2300719 C84.267512,20.6350829 85.3595141,19.1468971 85.3595141,17.4603816 C85.3595141,15.2778042 83.5728826,13.3929591 81.2899513,13.3929591 C79.1064226,13.3929591 77.2206263,15.1786394 77.2206263,17.4603816 C77.2206263,19.1468971 78.212988,20.5356803 79.7018872,21.1309071 L79.7018872,24.4047732 C79.7018872,26.0912887 78.3123906,27.3809071 76.7243265,27.3809071 L71.1661023,27.3809071 L71.1661023,30.4564436 L76.7243265,30.4564436 C80.0987843,30.4564436 82.7788505,27.6786394 82.7788505,24.4047732" id="Path" fill="url(#linearGradient-1)"></path>
                <path d="M79.8010521,52.2817423 L79.8010521,54.762052 C78.3123906,55.3572787 77.3197911,56.8452268 77.3197911,58.4325774 C77.3197911,60.6151549 79.1064226,62.5 81.3893539,62.5 C83.5728826,62.5 85.4586789,60.7143197 85.4586789,58.4325774 C85.4586789,56.7460619 84.3669146,55.2578761 82.8782532,54.6628871 L82.8782532,52.1825774 C82.8782532,48.8095465 80.198187,46.1311449 76.8234914,46.1311449 L71.2652671,46.1311449 L71.2652671,49.2064436 L76.8234914,49.2064436 C78.4115554,49.2064436 79.8010521,50.5952268 79.8010521,52.2817423" id="Path" fill="url(#linearGradient-2)"></path>
                <path d="M85.3595141,34.3254669 C83.6722852,34.3254669 82.183386,35.3174226 81.5879214,36.8058462 L71.2652671,36.8058462 L71.2652671,39.8809071 L81.6870862,39.8809071 C82.2825508,41.3690929 83.77145,42.3612168 85.4586789,42.3612168 C87.6424454,42.3612168 89.5282418,40.5752987 89.5282418,38.2935564 C89.4273876,36.0670799 87.5882553,34.3164947 85.3595141,34.3254669" id="Path" fill="url(#linearGradient-4)"></path>
                <path d="M25.8063979,57.0437942 L63.7220817,57.0437942 C66.0047751,57.0437942 67.7911689,55.2578761 67.7911689,52.9763717 L67.7911689,26.6865155 C67.7911689,24.4047732 66.0047751,22.6190929 63.7218438,22.6190929 L60.049416,22.6190929 L60.049416,15.278042 C60.049416,6.84546458 53.2006221,-3.37941716e-15 44.764002,-3.37941716e-15 C36.3273819,-3.37941716e-15 29.4788258,6.84522677 29.4788258,15.2778042 L29.4788258,22.6190929 L25.8063979,22.6190929 C23.5234666,22.6190929 21.7368351,24.4047732 21.7368351,26.6865155 L21.7368351,52.9763717 C21.7368351,55.2578761 23.5234666,57.0437942 25.8063979,57.0437942 L25.8063979,57.0437942 Z M48.8335648,47.7182577 C49.0321323,48.3134845 48.5358325,49.0081139 47.8409653,49.0081139 L41.7864413,49.0081139 C41.0918119,49.0081139 40.694677,48.4126493 40.7938418,47.7182577 L42.2825032,41.8651549 C41.2901415,41.0713606 40.694677,39.8809071 40.694677,38.5912887 C40.694677,36.3095465 42.5804733,34.4247013 44.8634046,34.4247013 C47.1463359,34.4247013 49.0321323,36.3095465 49.0321323,38.5912887 C49.0321323,39.9800719 48.4364299,41.1705255 47.4440682,41.8651549 L48.8335648,47.7182577 Z M35.3347824,15.2778042 C35.3347824,10.0199281 39.6029126,5.85310288 44.764002,5.85310288 C50.0247318,5.85310288 54.1932216,10.1190929 54.1932216,15.2778042 L54.1932216,22.6190929 L35.3347824,22.6190929 L35.3347824,15.278042 L35.3347824,15.2778042 Z" id="Shape" fill="url(#linearGradient-5)"></path>
            </g>
            <g id="CRYPTO-SERVER-OUTLINES" transform="translate(104.687500, 19.375000)">
                <path d="M11.635,24.0175 C8.40666667,24.0175 5.66041667,22.9233333 3.39625,20.735 C1.13208333,18.5466667 0,15.6433333 0,12.025 C0,8.42833333 1.14833333,5.525 3.445,3.315 C5.74166667,1.105 8.46083333,0 11.6025,0 C14.3758333,0 16.65625,0.704166667 18.44375,2.1125 C20.23125,3.52083333 21.4066667,5.30833333 21.97,7.475 L18.2975,8.71 C17.9291667,7.215 17.1816667,6.00166667 16.055,5.07 C14.9283333,4.13833333 13.4441667,3.6725 11.6025,3.6725 C9.54416667,3.6725 7.76208333,4.40375 6.25625,5.86625 C4.75041667,7.32875 3.9975,9.38166667 3.9975,12.025 C3.9975,14.6033333 4.745,16.62375 6.24,18.08625 C7.735,19.54875 9.53333333,20.28 11.635,20.28 C13.4333333,20.28 14.9175,19.7925 16.0875,18.8175 C17.2575,17.8425 18.0591667,16.64 18.4925,15.21 L22.0675,16.38 C21.5041667,18.525 20.3179167,20.3341667 18.50875,21.8075 C16.6995833,23.2808333 14.4083333,24.0175 11.635,24.0175 Z" id="Path" fill="url(#linearGradient-6)"></path>
                <path d="M37.6675,23.53 L32.825,14.43 L29.965,14.43 L29.965,23.53 L26.0325,23.53 L26.0325,0.4875 L34.8725,0.4875 C37.0391667,0.4875 38.7833333,1.15375 40.105,2.48625 C41.4266667,3.81875 42.0875,5.48166667 42.0875,7.475 C42.0875,9.12166667 41.6216667,10.53 40.69,11.7 C39.7583333,12.87 38.4908333,13.65 36.8875,14.04 L42.0875,23.53 L37.6675,23.53 Z M29.965,10.985 L34.1575,10.985 C35.3491667,10.985 36.3079167,10.6654167 37.03375,10.02625 C37.7595833,9.38708333 38.1225,8.53666667 38.1225,7.475 C38.1225,6.39166667 37.7595833,5.53041667 37.03375,4.89125 C36.3079167,4.25208333 35.3491667,3.9325 34.1575,3.9325 L29.965,3.9325 L29.965,10.985 Z" id="Shape" fill="url(#linearGradient-7)"></path>
                <polygon id="Path" fill="url(#linearGradient-8)" points="51.545 13.78 43.485 0.4875 48.1 0.4875 53.625 10.14 59.1825 0.4875 63.57 0.4875 55.445 13.78 55.445 23.53 51.545 23.53"></polygon>
                <path d="M70.5575,11.0825 L74.62,11.0825 C75.855,11.0825 76.8245833,10.7629167 77.52875,10.12375 C78.2329167,9.48458333 78.585,8.62333333 78.585,7.54 C78.585,6.435 78.2329167,5.5575 77.52875,4.9075 C76.8245833,4.2575 75.855,3.9325 74.62,3.9325 L70.5575,3.9325 L70.5575,11.0825 Z M75.205,14.5275 L70.5575,14.5275 L70.5575,23.53 L66.6575,23.53 L66.6575,0.4875 L75.205,0.4875 C77.3933333,0.4875 79.1645833,1.14833333 80.51875,2.47 C81.8729167,3.79166667 82.55,5.47083333 82.55,7.5075 C82.55,9.56583333 81.8729167,11.2504167 80.51875,12.56125 C79.1645833,13.8720833 77.3933333,14.5275 75.205,14.5275 Z" id="Shape" fill="url(#linearGradient-9)"></path>
                <polygon id="Path" fill="url(#linearGradient-10)" points="102.765 4.16 95.2575 4.16 95.2575 23.53 91.3575 23.53 91.3575 4.16 83.8825 4.16 83.8825 0.4875 102.765 0.4875"></polygon>
                <path d="M110.11,5.8825 C108.593333,7.33416667 107.835,9.37083333 107.835,11.9925 C107.835,14.6141667 108.593333,16.65625 110.11,18.11875 C111.626667,19.58125 113.435833,20.3125 115.5375,20.3125 C117.639167,20.3125 119.45375,19.58125 120.98125,18.11875 C122.50875,16.65625 123.2725,14.6141667 123.2725,11.9925 C123.2725,9.37083333 122.50875,7.32875 120.98125,5.86625 C119.45375,4.40375 117.639167,3.6725 115.5375,3.6725 C113.435833,3.6725 111.626667,4.40916667 110.11,5.8825 Z M105.495,18.4275 C104.39,16.5641667 103.8375,14.4191667 103.8375,11.9925 C103.8375,9.56583333 104.395417,7.42625 105.51125,5.57375 C106.627083,3.72125 108.0625,2.32916667 109.8175,1.3975 C111.5725,0.465833333 113.479167,0 115.5375,0 C117.595833,0 119.5025,0.465833333 121.2575,1.3975 C123.0125,2.32916667 124.453333,3.72125 125.58,5.57375 C126.706667,7.42625 127.27,9.56583333 127.27,11.9925 C127.27,14.4191667 126.706667,16.5641667 125.58,18.4275 C124.453333,20.2908333 123.0125,21.6883333 121.2575,22.62 C119.5025,23.5516667 117.595833,24.0175 115.5375,24.0175 C113.479167,24.0175 111.5725,23.5516667 109.8175,22.62 C108.0625,21.6883333 106.621667,20.2908333 105.495,18.4275 Z" id="Shape" fill="url(#linearGradient-11)"></path>
                <path d="M154.6025,5.8825 L151.0925,6.9875 C150.940833,6.09916667 150.496667,5.28666667 149.76,4.55 C149.023333,3.81333333 147.961667,3.445 146.575,3.445 C145.426667,3.445 144.47875,3.77 143.73125,4.42 C142.98375,5.07 142.61,5.85 142.61,6.76 C142.61,8.34166667 143.509167,9.3275 145.3075,9.7175 L148.6225,10.4 C150.615833,10.79 152.154167,11.5808333 153.2375,12.7725 C154.320833,13.9641667 154.8625,15.3833333 154.8625,17.03 C154.8625,18.9366667 154.13125,20.5779167 152.66875,21.95375 C151.20625,23.3295833 149.218333,24.0175 146.705,24.0175 C143.996667,24.0175 141.884167,23.3079167 140.3675,21.88875 C138.850833,20.4695833 137.995,18.8175 137.8,16.9325 L141.44,15.8925 C141.57,17.1925 142.09,18.2866667 143,19.175 C143.91,20.0633333 145.145,20.5075 146.705,20.5075 C148.048333,20.5075 149.082917,20.2095833 149.80875,19.61375 C150.534583,19.0179167 150.8975,18.2541667 150.8975,17.3225 C150.8975,16.5641667 150.626667,15.90875 150.085,15.35625 C149.543333,14.80375 148.785,14.4191667 147.81,14.2025 L144.56,13.52 C142.761667,13.1516667 141.337083,12.4041667 140.28625,11.2775 C139.235417,10.1508333 138.71,8.7425 138.71,7.0525 C138.71,5.12416667 139.479167,3.46666667 141.0175,2.08 C142.555833,0.693333333 144.3975,0 146.5425,0 C148.990833,0 150.865,0.590416667 152.165,1.77125 C153.465,2.95208333 154.2775,4.3225 154.6025,5.8825 Z" id="Path" fill="url(#linearGradient-12)"></path>
                <polygon id="Path" fill="url(#linearGradient-13)" points="173.16 23.53 158.925 23.53 158.925 0.4875 173.16 0.4875 173.16 4.1275 162.825 4.1275 162.825 10.2375 172.185 10.2375 172.185 13.78 162.825 13.78 162.825 19.89 173.16 19.89"></polygon>
                <path d="M189.475,23.53 L184.6325,14.43 L181.7725,14.43 L181.7725,23.53 L177.84,23.53 L177.84,0.4875 L186.68,0.4875 C188.846667,0.4875 190.590833,1.15375 191.9125,2.48625 C193.234167,3.81875 193.895,5.48166667 193.895,7.475 C193.895,9.12166667 193.429167,10.53 192.4975,11.7 C191.565833,12.87 190.298333,13.65 188.695,14.04 L193.895,23.53 L189.475,23.53 Z M181.7725,10.985 L185.965,10.985 C187.156667,10.985 188.115417,10.6654167 188.84125,10.02625 C189.567083,9.38708333 189.93,8.53666667 189.93,7.475 C189.93,6.39166667 189.567083,5.53041667 188.84125,4.89125 C188.115417,4.25208333 187.156667,3.9325 185.965,3.9325 L181.7725,3.9325 L181.7725,10.985 Z" id="Shape" fill="url(#linearGradient-7)"></path>
                <polygon id="Path" fill="url(#linearGradient-14)" points="206.115 18.4275 212.5825 0.4875 216.71 0.4875 208 23.53 204.035 23.53 195.455 0.4875 199.68 0.4875"></polygon>
                <polygon id="Path" fill="url(#linearGradient-13)" points="234.0325 23.53 219.7975 23.53 219.7975 0.4875 234.0325 0.4875 234.0325 4.1275 223.6975 4.1275 223.6975 10.2375 233.0575 10.2375 233.0575 13.78 223.6975 13.78 223.6975 19.89 234.0325 19.89"></polygon>
                <path d="M250.3475,23.53 L245.505,14.43 L242.645,14.43 L242.645,23.53 L238.7125,23.53 L238.7125,0.4875 L247.5525,0.4875 C249.719167,0.4875 251.463333,1.15375 252.785,2.48625 C254.106667,3.81875 254.7675,5.48166667 254.7675,7.475 C254.7675,9.12166667 254.301667,10.53 253.37,11.7 C252.438333,12.87 251.170833,13.65 249.5675,14.04 L254.7675,23.53 L250.3475,23.53 Z M242.645,10.985 L246.8375,10.985 C248.029167,10.985 248.987917,10.6654167 249.71375,10.02625 C250.439583,9.38708333 250.8025,8.53666667 250.8025,7.475 C250.8025,6.39166667 250.439583,5.53041667 249.71375,4.89125 C248.987917,4.25208333 248.029167,3.9325 246.8375,3.9325 L242.645,3.9325 L242.645,10.985 Z" id="Shape" fill="url(#linearGradient-7)"></path>
            </g>
        </g>
    </g>
</svg>
